Sweet-Rainbow/icons/ktorrent.svg

<?xml version="1.0" encoding="UTF-8" standalone="no"?>
<!-- Generator: Gravit.io -->

<svg
   xmlns:dc="http://purl.org/dc/elements/1.1/"
   xmlns:cc="http://creativecommons.org/ns#"
   xmlns:rdf="http://www.w3.org/1999/02/22-rdf-syntax-ns#"
   xmlns:svg="http://www.w3.org/2000/svg"
   xmlns="http://www.w3.org/2000/svg"
   xmlns:sodipodi="http://sodipodi.sourceforge.net/DTD/sodipodi-0.dtd"
   xmlns:inkscape="http://www.inkscape.org/namespaces/inkscape"
   style="isolation:isolate"
   viewBox="0 0 36 36"
   width="48"
   height="48"
   version="1.1"
   id="svg9"
   sodipodi:docname="ktorrent.svg"
   inkscape:version="0.92.4 (5da689c313, 2019-01-14)">
  <metadata
     id="metadata15">
    <rdf:RDF>
      <cc:Work
         rdf:about="">
        <dc:format>image/svg+xml</dc:format>
        <dc:type
           rdf:resource="http://purl.org/dc/dcmitype/StillImage" />
        <dc:title></dc:title>
      </cc:Work>
    </rdf:RDF>
  </metadata>
  <defs
     id="defs13" />
  <sodipodi:namedview
     pagecolor="#ffffff"
     bordercolor="#666666"
     borderopacity="1"
     objecttolerance="10"
     gridtolerance="10"
     guidetolerance="10"
     inkscape:pageopacity="0"
     inkscape:pageshadow="2"
     inkscape:window-width="640"
     inkscape:window-height="480"
     id="namedview11"
     showgrid="false"
     inkscape:zoom="29.365243"
     inkscape:cx="25.325443"
     inkscape:cy="32"
     inkscape:current-layer="svg9"
     units="px" />
  <linearGradient
     id="_lgradient_6"
     x1="0.39488637"
     y1="0.98579544"
     x2="0.45245546"
     y2="0.033027131"
     gradientTransform="matrix(44,0,0,45,2,1)"
     gradientUnits="userSpaceOnUse">
    <stop
       offset="0%"
       stop-opacity="1"
       style="stop-color:rgb(0,198,255)"
       id="stop2" />
    <stop
       offset="98.69565217391305%"
       stop-opacity="1"
       style="stop-color:rgb(0,114,255)"
       id="stop4" />
  </linearGradient>
  <g
     id="g826"
     transform="matrix(0.8,0,0,0.8,-1.2,-0.8)">
    <path
       id="path7"
       d="m 26,15 v 0 c 0,-1.104 0.896,-2 2,-2 v 0 c 1.104,0 2,0.896 2,2 v 0 8.26 l 6.479,-4.317 c 2.297,-1.531 5.137,-0.756 6.338,1.728 l 0.686,1.418 c 1.201,2.484 0.328,5.766 -1.95,7.324 l -14.252,9.749 c -1.822,1.246 -4.78,1.246 -6.602,0 L 6.447,29.413 C 4.169,27.855 3.296,24.573 4.497,22.089 l 0.686,-1.418 c 1.201,-2.484 4.041,-3.259 6.338,-1.728 L 18,23.26 V 3 3 c 0,-1.104 0.896,-2 2,-2 v 0 c 1.104,0 2,0.896 2,2 v 0 25.74 c 0,1.104 -0.746,1.503 -1.664,0.89 L 10.304,22.94 C 9.386,22.327 8.425,22.632 8.16,23.62 v 0 c -0.265,0.988 0.26,2.296 1.17,2.92 l 13.02,8.91 c 0.91,0.624 2.39,0.624 3.3,0 l 13.02,-8.91 c 0.91,-0.624 1.435,-1.932 1.17,-2.92 v 0 C 39.575,22.632 38.614,22.327 37.696,22.94 L 27.664,29.63 C 26.746,30.243 26,29.844 26,28.74 Z m 18,27 v 0 c 1.104,0 2,0.896 2,2 v 0 c 0,1.104 -0.896,2 -2,2 v 0 H 4 v 0 C 2.896,46 2,45.104 2,44 v 0 c 0,-1.104 0.896,-2 2,-2 v 0 z M 26,6 c 0,-1.104 0.896,-2 2,-2 1.104,0 2,0.896 2,2 0,1.104 -0.896,2 -2,2 -1.104,0 -2,-0.896 -2,-2 z"
       style="fill:url(#_lgradient_6);fill-rule:evenodd"
       inkscape:connector-curvature="0" />
  </g>
</svg>

<?xml version="1.0" encoding="UTF-8" standalone="no"?><!-- Generator: Gravit.io --><svg xmlns="http://www.w3.org/2000/svg" xmlns:xlink="http://www.w3.org/1999/xlink" style="isolation:isolate" viewBox="0 0 48 48" width="48pt" height="48pt"><linearGradient id="_lgradient_6" x1="0.39488636363636365" y1="0.9857954545454546" x2="0.45245544653584285" y2="0.03302713255907064" gradientTransform="matrix(44,0,0,45,2,1)" gradientUnits="userSpaceOnUse"><stop offset="0%" stop-opacity="1" style="stop-color:rgb(0,198,255)"/><stop offset="98.69565217391305%" stop-opacity="1" style="stop-color:rgb(0,114,255)"/></linearGradient><path d=" M 26 15 L 26 15 C 26 13.896 26.896 13 28 13 L 28 13 C 29.104 13 30 13.896 30 15 L 30 15 L 30 23.26 L 36.479 18.943 C 38.776 17.412 41.616 18.187 42.817 20.671 L 43.503 22.089 C 44.704 24.573 43.831 27.855 41.553 29.413 L 27.301 39.162 C 25.479 40.408 22.521 40.408 20.699 39.162 L 6.447 29.413 C 4.169 27.855 3.296 24.573 4.497 22.089 L 5.183 20.671 C 6.384 18.187 9.224 17.412 11.521 18.943 L 18 23.26 L 18 3 L 18 3 C 18 1.896 18.896 1 20 1 L 20 1 C 21.104 1 22 1.896 22 3 L 22 3 L 22 28.74 C 22 29.844 21.254 30.243 20.336 29.63 L 10.304 22.94 C 9.386 22.327 8.425 22.632 8.16 23.62 L 8.16 23.62 C 7.895 24.608 8.42 25.916 9.33 26.54 L 22.35 35.45 C 23.26 36.074 24.74 36.074 25.65 35.45 L 38.67 26.54 C 39.58 25.916 40.105 24.608 39.84 23.62 L 39.84 23.62 C 39.575 22.632 38.614 22.327 37.696 22.94 L 27.664 29.63 C 26.746 30.243 26 29.844 26 28.74 L 26 15 L 26 15 Z  M 44 42 L 44 42 C 45.104 42 46 42.896 46 44 L 46 44 C 46 45.104 45.104 46 44 46 L 44 46 L 4 46 L 4 46 C 2.896 46 2 45.104 2 44 L 2 44 C 2 42.896 2.896 42 4 42 L 4 42 L 44 42 L 44 42 Z  M 26 6 C 26 4.896 26.896 4 28 4 C 29.104 4 30 4.896 30 6 C 30 7.104 29.104 8 28 8 C 26.896 8 26 7.104 26 6 Z " fill-rule="evenodd" fill="url(#_lgradient_6)"/></svg>
